X:1
T:Title
%%score 1 ( 2 3 )
L:1/8
Q:1/4=100
M:2/4
K:G
V:1 treble nm="Grand Piano, Soprano"
V:2 bass nm="Choir Pad, Newport Beach, 77.77 D"
V:3 bass 
V:1
 [B,G][B,G] [B,G][B,G] | [B,G]2 [CA]2 | [DB]4 | [FA][FA] [FA][FA] | [FA]2 [GB]2 | [Ac]4 | %6
w: By~Daniel~Brink~Towner,~1899 * * *||||||
 [GB][GB] [GB][GB] | [GB]2 [Ac]2 | [Bd]4 | [=Fd][Ec] [DB][CA] | [B,G]2 [CF]2 | [B,G]4 | %12
w: ||||||
 [DB]2 [B,D]2 | [GB]>[GB] [Ac][GB] | [FA]4 | [CA][CD] [CA][CD] | [DB]2 [CA]2 | [B,G]4 | %18
w: ||||||
 [DB]2 [B,D]2 | [GB]>[GB] [Ac][GB] | [FA]4 | [=Fd][Ec] [DB][CA] | [B,G]2 [CF]2 | [B,G]4- | %24
w: ||||||
 [B,G]4 |] %25
w: |
V:2
 [G,,D,][G,,D,] [G,,D,][G,,D,] | [G,,D,]2 [G,,D,]2 | [G,,G,]4 | D,D, D,D, | D,2 D,2 | [D,F,]4 | %6
 G,G, [G,D][G,D] | [G,D]2 [G,D]2 | G,4 | [B,,G,][C,G,] [D,G,][D,F,] | [D,G,]2 D,2 | [G,,D,]4 | %12
 G,2 G,2 | [G,D]>[G,D] [G,D][G,D] | [D,D]4 | [D,A,][D,A,] [D,F,][D,A,] | [D,G,]2 [D,F,]2 | G,4 | %18
 G,2 G,2 | [G,D]>[G,D] [G,D][G,D] | D4 | [B,,G,][B,,G,] [D,G,][D,F,] | [D,G,]2 D,2 | [G,,D,]4- | %24
 [G,,D,]4 |] %25
V:3
 x4 | x4 | x4 | x4 | x4 | x4 | x4 | x4 | x4 | x4 | x4 | x4 | x4 | x4 | x4 | x4 | x4 | x4 | x4 | %19
 x4 | D,2 C,2 | x4 | x4 | x4 | x4 |] %25

